src/images/trading_app/statement/ic_wallet.svg

<?xml version="1.0" encoding="UTF-8"?>
<svg width="16px" height="16px" viewBox="0 0 16 16" version="1.1" xmlns="http://www.w3.org/2000/svg" xmlns:xlink="http://www.w3.org/1999/xlink">
    <!-- Generator: Sketch 50.2 (55047) - http://www.bohemiancoding.com/sketch -->
    <title>icons/system/light/wallet/ic-wallet</title>
    <desc>Created with Sketch.</desc>
    <defs></defs>
    <g id="icons/system/light/wallet/ic-wallet" stroke="none" stroke-width="1" fill="none" fill-rule="evenodd">
        <path d="M15,11 L15,8 L11.5,8 C10.6715729,8 10,8.67157288 10,9.5 C10,10.3284271 10.6715729,11 11.5,11 L15,11 Z M15,7 L15,5 L2,5 C1.63571286,5 1.29417337,4.90260571 1,4.73243561 L1,13.5 C1,13.7761424 1.22385763,14 1.5,14 L14.5,14 C14.7761424,14 15,13.7761424 15,13.5 L15,12 L11.5,12 C10.1192881,12 9,10.8807119 9,9.5 C9,8.11928813 10.1192881,7 11.5,7 L15,7 Z M15,4 L16,4 L16,13.5 C16,14.3284271 15.3284271,15 14.5,15 L1.5,15 C0.671572875,15 1.66533454e-16,14.3284271 0,13.5 L0,3 C-1.3527075e-16,1.8954305 0.8954305,1 2,1 L15,1 L15,4 Z M14,4 L14,2 L2,2 C1.44771525,2 1,2.44771525 1,3 C1,3.55228475 1.44771525,4 2,4 L14,4 Z M11.5,10 C11.7761424,10 12,9.77614237 12,9.5 C12,9.22385763 11.7761424,9 11.5,9 C11.2238576,9 11,9.22385763 11,9.5 C11,9.77614237 11.2238576,10 11.5,10 Z" id="Combined-Shape" fill="#2A3052" fill-rule="nonzero"></path>
    </g>
</svg>

<svg width="16" height="16" xmlns="http://www.w3.org/2000/svg"><path d="M15 11V8h-3.5a1.5 1.5 0 0 0 0 3H15zm0-4V5H2a1.99 1.99 0 0 1-1-.268V13.5a.5.5 0 0 0 .5.5h13a.5.5 0 0 0 .5-.5V12h-3.5a2.5 2.5 0 1 1 0-5H15zm0-3h1v9.5a1.5 1.5 0 0 1-1.5 1.5h-13A1.5 1.5 0 0 1 0 13.5V3a2 2 0 0 1 2-2h13v3zm-1 0V2H2a1 1 0 1 0 0 2h12zm-2.5 6a.5.5 0 1 0 0-1 .5.5 0 0 0 0 1z" fill="#2A3052" fill-rule="nonzero"/></svg>
